packages/tokens/icons/logOut/size24Px.svg

<svg viewBox="0 0 24 24" fill="none" xmlns="http://www.w3.org/2000/svg" width="1em" height="1em"><path d="M21.5 18.5V19.5C21.5 20.6046 20.6046 21.5 19.5 21.5L4.5 21.5C3.39543 21.5 2.5 20.6046 2.5 19.5L2.5 4.5C2.5 3.39543 3.39543 2.5 4.5 2.5L19.5 2.5C20.6046 2.5 21.5 3.39543 21.5 4.5V5.5" stroke="currentColor" stroke-linecap="round" stroke-linejoin="round"/><path d="M10 12L22 12M22 12L19.5 9.5M22 12L19.5 14.5" stroke="currentColor" stroke-linecap="round" stroke-linejoin="round"/></svg>

<svg xmlns="http://www.w3.org/2000/svg" fill="none" viewBox="0 0 24 24" width="1em" height="1em"><path stroke="currentColor" stroke-linecap="round" stroke-linejoin="round" d="M21.5 18.5v1a2 2 0 0 1-2 2h-15a2 2 0 0 1-2-2v-15a2 2 0 0 1 2-2h15a2 2 0 0 1 2 2v1M10 12h12m0 0-2.5-2.5M22 12l-2.5 2.5"/></svg>
